assets/icons/icon_turbo.svg

<svg width="30" height="30" viewBox="0 0 30 30" fill="none" xmlns="http://www.w3.org/2000/svg">
<g clip-path="url(#clip0_67_4577)">
<path fill-rule="evenodd" clip-rule="evenodd" d="M15.1517 6.28793C10.2564 6.28793 6.28806 10.2563 6.28806 15.1516H4.31836C4.31836 9.16852 9.16864 4.31824 15.1517 4.31824C21.1347 4.31824 25.985 9.16852 25.985 15.1516H24.0153C24.0153 10.2563 20.047 6.28793 15.1517 6.28793Z" fill="white"/>
<path d="M15.1512 28.9394C22.766 28.9394 28.939 22.7664 28.939 15.1515C28.939 7.53669 22.766 1.36365 15.1512 1.36365C7.53632 1.36365 1.36328 7.53669 1.36328 15.1515C1.36328 22.7664 7.53632 28.9394 15.1512 28.9394Z" stroke="white" stroke-width="1.70455"/>
<path d="M11.2119 16.7883L17.1167 10.2273L16.5758 14.0796L16.4755 14.7941L17.1827 14.9809L19.0907 15.4846L13.186 22.0455L13.7268 18.1931L13.8271 17.4786L13.12 17.292L11.2119 16.7883Z" stroke="white" stroke-width="1.70455"/>
</g>
<defs>
<clipPath id="clip0_67_4577">
<rect width="30" height="30" fill="white"/>
</clipPath>
</defs>
</svg>

<svg xmlns="http://www.w3.org/2000/svg" width="30" height="30" fill="none" viewBox="0 0 30 30"><g clip-path="url(#a)"><path fill="#fff" fill-rule="evenodd" d="M15.152 6.288a8.864 8.864 0 0 0-8.864 8.864h-1.97c0-5.983 4.85-10.834 10.834-10.834 5.983 0 10.833 4.85 10.833 10.834h-1.97a8.864 8.864 0 0 0-8.863-8.864" clip-rule="evenodd"/><path stroke="#fff" stroke-width="1.705" d="M15.151 28.94c7.615 0 13.788-6.174 13.788-13.788 0-7.615-6.173-13.788-13.788-13.788S1.363 7.537 1.363 15.152c0 7.614 6.173 13.787 13.788 13.787Z"/><path stroke="#fff" stroke-width="1.705" d="m11.212 16.788 5.905-6.56-.541 3.852-.1.714.707.187 1.908.504-5.905 6.56.54-3.852.101-.714-.707-.187z"/></g><defs><clipPath id="a"><path fill="#fff" d="M0 0h30v30H0z"/></clipPath></defs></svg>
